X:3
T:Ba-ba my Baby
T:Bab\`a mo leanabh
R:Slow Air
S:Simon Fraser Collection
N:No.79
N:transposed from Dmin
O:Scottish
M:6/8
L:1/8
Q:3/8=70
K:Bmin
D/E/|F2B B>cd|F2E D2 z/D/4E/4|FFF dcB|A<F~A B2 B/c/|
d>cd e2G|F>GE FGA G<EA|F2D E2||
|:F|d>cd e2f|f>gf/f/ f2 z/F/|d>cd e2f|f>gf/f/ f2 z/f/4f/4|
d>cd e2 z/G/|F>GF F<D z/D/4E/4|F>GA G<EA|F2D E2:|
